packages/sources/icons/src/vitamix/chrome-fill.svg

<svg width="16" height="16" viewBox="0 0 16 16" xmlns="http://www.w3.org/2000/svg"><path fill-rule="evenodd" clip-rule="evenodd" d="M8.0001 1.33332C6.13214 1.33119 4.34944 2.11488 3.0881 3.49265L4.9341 6.68998C5.45887 5.46256 6.66519 4.66648 8.0001 4.66665H13.7748C12.5841 2.60321 10.3824 1.33235 8.0001 1.33332ZM1.33337 7.99999C1.33337 11.1847 3.56671 13.8473 6.55137 14.5087L8.39871 11.31C7.05008 11.4728 5.73762 10.8007 5.08137 9.61132L2.22604 4.66532C1.65804 5.64666 1.33337 6.78532 1.33337 7.99999ZM10.858 9.71665L8.00004 14.6667C11.682 14.6667 14.6667 11.682 14.6667 7.99999C14.6667 7.30332 14.56 6.63132 14.3614 5.99999H10.6667C11.1004 6.57647 11.3344 7.27858 11.3334 7.99999C11.3344 8.60484 11.17 9.19845 10.858 9.71665ZM9.71468 9.02998C9.35018 9.63761 8.69131 10.0069 7.98277 10.0008C7.27423 9.99459 6.62188 9.61386 6.26801 8.99998L6.24868 8.96665C5.78212 8.12117 5.98629 7.06307 6.73394 6.45189C7.48159 5.84071 8.55916 5.85102 9.29497 6.4764C10.0308 7.10177 10.2147 8.16359 9.73201 8.99998L9.71468 9.02998Z"/></svg>

<svg width="16" height="16" xmlns="http://www.w3.org/2000/svg"><path fill-rule="evenodd" clip-rule="evenodd" d="M8 1.333a6.65 6.65 0 0 0-4.912 2.16L4.934 6.69A3.334 3.334 0 0 1 8 4.667h5.775A6.664 6.664 0 0 0 8 1.333ZM1.333 8a6.67 6.67 0 0 0 5.218 6.509L8.4 11.31a3.333 3.333 0 0 1-3.32-1.699L2.226 4.665A6.635 6.635 0 0 0 1.333 8Zm9.525 1.717L8 14.667A6.667 6.667 0 0 0 14.361 6h-3.694c.433.576.667 1.279.666 2a3.317 3.317 0 0 1-.475 1.717ZM9.715 9.03A2 2 0 0 1 6.268 9l-.02-.033A2 2 0 1 1 9.733 9l-.017.03Z"/></svg>
